img/vector/chars/Vector-C.svg

<svg width="97" height="110" viewBox="0 0 97 110" fill="none" xmlns="http://www.w3.org/2000/svg">
<path d="M47.7349 109.958C43.4518 109.958 39.5058 109.776 35.8992 109.408C32.297 109.042 28.9809 108.365 25.9532 107.376C22.9233 106.384 20.1019 105.025 17.489 103.304C14.8739 101.578 12.4695 99.3021 10.2758 96.4807C8.60777 94.4955 7.14605 92.2729 5.89282 89.8175C4.63738 87.3643 3.59045 84.5451 2.75201 81.3621C1.918 78.1747 1.29028 74.5437 0.871065 70.4669C0.456282 66.3922 0.25 61.7431 0.25 56.5195C0.25 47.3233 0.848885 39.2761 2.05109 32.3778C3.25108 25.4818 5.83515 19.5284 9.80554 14.5177C12.312 11.2771 15.1334 8.71521 18.2698 6.83427C21.4039 4.95555 24.669 3.52044 28.0649 2.53117C31.4585 1.53969 34.8811 0.911968 38.3302 0.650233C41.7771 0.38628 45.0687 0.250977 48.2051 0.250977H94.5987V27.5246H65.2844C62.361 27.5246 59.646 27.5512 57.1396 27.6045C54.6309 27.6533 52.3286 27.966 50.2369 28.545C48.1475 29.1194 46.2665 29.9801 44.5941 31.1268C42.9261 32.2758 41.4644 33.946 40.2111 36.1397C39.3771 37.5016 38.7228 39.0454 38.2503 40.7711C37.7823 42.4923 37.4407 44.269 37.23 46.0945C37.0215 47.9222 36.864 49.6745 36.7598 51.3469C36.6577 53.0149 36.609 54.5299 36.609 55.8896C36.609 58.9195 36.711 61.4814 36.9195 63.5731C37.1302 65.6625 37.3675 67.4126 37.6293 68.8255C37.8888 70.234 38.1749 71.3563 38.4899 72.1881C38.8026 73.0221 39.0622 73.6498 39.2707 74.0691C40.4218 76.265 41.9146 77.9352 43.7423 79.0819C45.5678 80.2309 47.6306 81.0671 49.9264 81.5928C52.2265 82.1141 54.7352 82.429 57.4501 82.5333C60.1695 82.6353 62.9909 82.6841 65.9144 82.6841H96.32V109.958H47.7349Z"/>
</svg>

<svg width="97" height="110" viewBox="0 0 97 110" fill="none" xmlns="http://www.w3.org/2000/svg"><path d="M47.735 109.958c-4.283 0-8.23-.182-11.836-.55-3.603-.366-6.92-1.043-9.947-2.032a35.26 35.26 0 0 1-8.464-4.072c-2.616-1.726-5.02-4.002-7.214-6.823-1.668-1.985-3.13-4.207-4.383-6.663-1.256-2.453-2.303-5.272-3.14-8.455C1.917 78.175 1.29 74.544.87 70.467c-.414-4.075-.62-8.724-.62-13.948 0-9.197.599-17.244 1.801-24.142 1.201-6.896 3.785-12.85 7.756-17.86 2.506-3.24 5.327-5.803 8.464-7.684a41.657 41.657 0 0 1 9.795-4.303A50.018 50.018 0 0 1 38.33.651c3.447-.264 6.739-.4 9.875-.4H94.6v27.275H65.283c-2.923 0-5.638.026-8.144.08-2.51.048-4.811.36-6.903.94-2.09.574-3.97 1.435-5.643 2.582-1.668 1.149-3.13 2.82-4.383 5.013-.833 1.362-1.487 2.905-1.96 4.631a36.01 36.01 0 0 0-1.02 5.325c-.208 1.827-.366 3.58-.47 5.252a74.82 74.82 0 0 0-.15 4.543c0 3.03.1 5.591.31 7.683.21 2.09.448 3.84.71 5.252.259 1.41.545 2.531.86 3.363.313.834.572 1.462.78 1.881 1.152 2.195 2.645 3.865 4.472 5.012 1.826 1.149 3.889 1.985 6.184 2.51 2.3.522 4.81.837 7.524.941 2.72.102 5.54.151 8.464.151H96.32v27.274H47.735z"/></svg>
